public/images/hashed/e252aca682999e38c4ee3931b8a53cdd.svg

<?xml version="1.0" encoding="UTF-8"?>
<svg width="80px" height="80px" viewBox="0 0 80 80" version="1.1" xmlns="http://www.w3.org/2000/svg" xmlns:xlink="http://www.w3.org/1999/xlink">
    <title>Icon-Architecture/64/Arch_Amazon-EventBridge_64</title>
    <defs>
        <linearGradient x1="0%" y1="100%" x2="100%" y2="0%" id="linearGradient-1">
            <stop stop-color="#B0084D" offset="0%"></stop>
            <stop stop-color="#FF4F8B" offset="100%"></stop>
        </linearGradient>
    </defs>
    <g id="Icon-Architecture/64/Arch_Amazon-EventBridge_64" stroke="none" stroke-width="1" fill="none" fill-rule="evenodd">
        <g id="Icon-Architecture-BG/64/Application-Integration" fill="url(#linearGradient-1)">
            <rect id="Rectangle" x="0" y="0" width="80" height="80"></rect>
        </g>
        <path d="M53.656744,66 C51.5137882,66 49.7695913,64.247 49.7695913,62.091 C49.7695913,59.935 51.5137882,58.182 53.656744,58.182 C55.7996998,58.182 57.5438968,59.935 57.5438968,62.091 C57.5438968,64.247 55.7996998,66 53.656744,66 L53.656744,66 Z M45.1326526,49 L34.7977386,49 L29.6297845,40 L34.7977386,31 L45.1326526,31 L50.2996124,40 L45.1326526,49 Z M27.6210741,21.818 C25.4781184,21.818 23.7339214,20.065 23.7339214,17.909 C23.7339214,15.753 25.4781184,14 27.6210741,14 C29.7650244,14 31.5092213,15.753 31.5092213,17.909 C31.5092213,20.065 29.7650244,21.818 27.6210741,21.818 L27.6210741,21.818 Z M53.656744,56.182 C52.918891,56.182 52.214848,56.325 51.5635088,56.576 L47.3402451,49.41 L47.117497,49.543 L52.3093171,40.5 C52.4863222,40.19 52.4863222,39.81 52.3093171,39.5 L46.5675877,29.5 C46.3895881,29.19 46.0614325,29 45.7064278,29 L35.2581509,29 L35.2989218,28.976 L31.4266852,22.404 C32.691576,21.32 33.4980434,19.708 33.4980434,17.909 C33.4980434,14.651 30.8618597,12 27.6210741,12 C24.381283,12 21.7450993,14.651 21.7450993,17.909 C21.7450993,21.167 24.381283,23.818 27.6210741,23.818 C28.3599216,23.818 29.0639646,23.675 29.7153038,23.424 L33.3299879,29.557 L27.6200797,39.5 C27.4430746,39.81 27.4430746,40.19 27.6200797,40.5 L33.3628035,50.5 C33.5408031,50.81 33.8689587,51 34.2239635,51 L45.7064278,51 C45.7889639,51 45.8695112,50.987 45.9470752,50.968 L49.8521274,57.596 C48.5862421,58.68 47.7807692,60.292 47.7807692,62.091 C47.7807692,65.349 50.4159585,68 53.656744,68 C56.8975296,68 59.5327189,65.349 59.5327189,62.091 C59.5327189,58.833 56.8975296,56.182 53.656744,56.182 L53.656744,56.182 Z M59.5844283,32.104 C57.4414725,32.104 55.6982699,30.351 55.6982699,28.195 C55.6982699,26.039 57.4414725,24.286 59.5844283,24.286 C61.7273841,24.286 63.471581,26.039 63.471581,28.195 C63.471581,30.351 61.7273841,32.104 59.5844283,32.104 L59.5844283,32.104 Z M66.8665003,39.5 L63.091716,32.925 C64.5266511,31.846 65.4604031,30.13 65.4604031,28.195 C65.4604031,24.937 62.8252138,22.286 59.5844283,22.286 C58.7600615,22.286 57.9744768,22.459 57.2614841,22.77 L54.1837819,17.409 C54.0067767,17.1 53.6776267,16.909 53.3226219,16.909 L40.9949082,16.909 L40.9949082,18.909 L52.7488468,18.909 L55.5958456,23.869 C54.4383511,24.949 53.7094478,26.486 53.7094478,28.195 C53.7094478,31.453 56.3446371,34.104 59.5844283,34.104 C60.1880358,34.104 60.771755,34.011 61.3206699,33.84 L64.85779,40 L59.8917013,48.648 L61.6140212,49.648 L66.8665003,40.5 C67.0444999,40.19 67.0444999,39.81 66.8665003,39.5 L66.8665003,39.5 Z M21.229,55.247 C19.0850498,55.247 17.3408528,53.493 17.3408528,51.338 C17.3408528,49.182 19.0850498,47.429 21.229,47.429 C23.3719558,47.429 25.1161527,49.182 25.1161527,51.338 C25.1161527,53.493 23.3719558,55.247 21.229,55.247 L21.229,55.247 Z M24.4767464,56.258 C26.0588544,55.198 27.1049748,53.389 27.1049748,51.338 C27.1049748,48.08 24.4687911,45.429 21.229,45.429 C20.2902759,45.429 19.4062445,45.657 18.618671,46.052 L15.1432044,40 L20.9018387,29.971 L19.1785244,28.971 L13.1334997,39.5 C12.9555001,39.81 12.9555001,40.19 13.1334997,40.5 L17.0047419,47.24 C15.9834817,48.304 15.3520307,49.747 15.3520307,51.338 C15.3520307,54.596 17.9882144,57.247 21.229,57.247 C21.7172558,57.247 22.189601,57.18 22.6440469,57.066 L25.8162181,62.591 C25.9942177,62.9 26.3223733,63.091 26.6773781,63.091 L39.0060862,63.091 L39.0060862,61.091 L27.2511532,61.091 L24.4767464,56.258 Z" id="Amazon-EventBridge_Icon_64_Squid" fill="#FFFFFF"></path>
    </g>
</svg>

<svg xmlns="http://www.w3.org/2000/svg" width="80" height="80"><defs><linearGradient id="a" x1="0%" x2="100%" y1="100%" y2="0%"><stop offset="0%" stop-color="#B0084D"/><stop offset="100%" stop-color="#FF4F8B"/></linearGradient></defs><g fill="none" fill-rule="evenodd"><path fill="url(#a)" d="M0 0h80v80H0z"/><path fill="#FFF" d="M53.657 66c-2.143 0-3.887-1.753-3.887-3.909 0-2.156 1.744-3.909 3.887-3.909s3.887 1.753 3.887 3.909c0 2.156-1.744 3.909-3.887 3.909Zm-8.524-17H34.798l-5.168-9 5.168-9h10.335l5.167 9-5.167 9ZM27.62 21.818c-2.143 0-3.887-1.753-3.887-3.909 0-2.156 1.744-3.909 3.887-3.909 2.144 0 3.888 1.753 3.888 3.909 0 2.156-1.744 3.909-3.888 3.909Zm26.036 34.364c-.738 0-1.442.143-2.093.394L47.34 49.41l-.223.133L52.31 40.5c.177-.31.177-.69 0-1l-5.741-10a.993.993 0 0 0-.862-.5H35.258l.04-.024-3.871-6.572a5.909 5.909 0 0 0 2.071-4.495c0-3.258-2.636-5.909-5.877-5.909-3.24 0-5.876 2.651-5.876 5.909s2.636 5.909 5.876 5.909c.739 0 1.443-.143 2.094-.394l3.615 6.133-5.71 9.943c-.177.31-.177.69 0 1l5.743 10c.178.31.506.5.861.5h11.482c.083 0 .164-.013.241-.032l3.905 6.628a5.905 5.905 0 0 0-2.071 4.495c0 3.258 2.635 5.909 5.876 5.909 3.24 0 5.876-2.651 5.876-5.909s-2.635-5.909-5.876-5.909Zm5.927-24.078c-2.143 0-3.886-1.753-3.886-3.909 0-2.156 1.743-3.909 3.886-3.909s3.888 1.753 3.888 3.909c0 2.156-1.745 3.909-3.888 3.909Zm7.283 7.396-3.775-6.575a5.909 5.909 0 0 0 2.368-4.73c0-3.258-2.635-5.909-5.876-5.909-.824 0-1.61.173-2.323.484l-3.077-5.361a.994.994 0 0 0-.861-.5H40.995v2h11.754l2.847 4.96a5.901 5.901 0 0 0-1.887 4.326c0 3.258 2.636 5.909 5.875 5.909.604 0 1.188-.093 1.737-.264L64.858 40l-4.966 8.648 1.722 1 5.253-9.148c.177-.31.177-.69 0-1ZM21.229 55.247c-2.144 0-3.888-1.754-3.888-3.909 0-2.156 1.744-3.909 3.888-3.909 2.143 0 3.887 1.753 3.887 3.909 0 2.155-1.744 3.909-3.887 3.909Zm3.248 1.011a5.916 5.916 0 0 0 2.628-4.92c0-3.258-2.636-5.909-5.876-5.909-.939 0-1.823.228-2.61.623L15.143 40l5.759-10.029-1.723-1L13.133 39.5c-.177.31-.177.69 0 1l3.872 6.74a5.9 5.9 0 0 0-1.653 4.098c0 3.258 2.636 5.909 5.877 5.909.488 0 .96-.067 1.415-.181l3.172 5.525c.178.309.506.5.861.5h12.33v-2H27.25l-2.774-4.833Z"/></g></svg>
